X: 20553
T: John Murphy's
R: slide
M: 12/8
K: Gmajor
|:B2 c|d2 g B2 c d3 efg|a2 g fed e2 d B2 c|
d2 g B2 c d3 efg|a2 g fef g3:|
|:b2 a|b2 d ded efg a3|a2 g fed e2 d b2 a|
[1 b2 d ded efg a3|a2 g fef g3:|
[2 d2 g B2 c d3 efg|a2 g fef g3||

